icon-themes/breeze_svg/svx/res/marker-rectplus9-2.svg

<svg height="9" viewBox="0 0 9 9" width="9" xmlns="http://www.w3.org/2000/svg"><path d="m0 .00002v9h9v-9zm4 1h1v1 2h2 1v1h-1-2v2 1h-1v-1-2h-2-1v-1h1 2v-2z" fill="#fdbc4b"/><path d="m4 1.00002v3h-3v1h3v3h1v-3h3v-1h-3v-3z" fill="#4d4d4d"/></svg>

<svg viewBox="0 0 9 9" xmlns="http://www.w3.org/2000/svg">
  <path
     d="M 0 0 L 0 9 L 9 9 L 9 0 L 0 0 z M 4 1 L 5 1 L 5 2 L 5 4 L 7 4 L 8 4 L 8 5 L 7 5 L 5 5 L 5 7 L 5 8 L 4 8 L 4 7 L 4 5 L 2 5 L 1 5 L 1 4 L 2 4 L 4 4 L 4 2 L 4 1 z "
     style="fill:#fdbc4b;opacity:0.8" />
  <path
     d="m4 1v3h-3v1h3v3h1v-3h3v-1h-3v-3z"
     style="fill:#4d4d4d;opacity:0.8" />
</svg>
